X: 122
T: Subscription at Lloyds
%R: jig
B: Thompson's Twenty four Country Dances (for the Year 1804) p.12 #2
S: http://folkopedia.efdss.org/images/2/28/Thompson24_1804.PDF  2014-8-2
Z: 2014 John Chambers <jc:trillian.mit.edu>
M: 6/8
L: 1/8
K: Am
e |\
cBA ABA | c2A e2c | dBG GAG | B2G d2B |\
cBA ABA | c2A a2e | ecA ABA | c2A A2 :|
|: B |\
cdc c2e | ded d2f | edc cBc | dBG G2F |\
Eec Ffd | Gge Aaf | Eed cdB | A3 A2 :|
% - - - - - - - - - - - - - - - - - - - - - - - - -
%%begintext align
%% Hands six round and back again lead down
%% the middle up again & Allemande.
%%endtext
% - - - - - - - - - - - - - - - - - - - - - - - - -
